X: 690
T: Gouqin shangshou
%%abc-version 2.0
%%abcx-abcm2ps-target-version 5.9.1 (29 Sep 2008)
%%abc-creator hum2abc beta
%%abcx-conversion-date 2013/10/02 07:52:30
%%abc-edited-by Helmut Schaffrath
%%humdrum-veritas 287784314
%%humdrum-veritas-data 3072627318
%%continueall 1
%%barnumbers 0
L: 1/8
M: 2/4
K: G
z d/ B/ [I:setbarnb 1]| 
A A/ G/A2 | 
A dd2 | 
B e/ e/ d B | 
A GF2 | 
d d e d | 
B A B d | 
F/ z/ E/ G/ A E | 
D2 |]  



